!!! OTL: Berkowitz17
!!! Chapter: 1
!!! Section: I
!!! Page: 8
!!! Mode: 
!!! Encoder: DJB
**kern
*staff1
*I"Piano
=1-
*clefG2
*k[b-e-]
*B-:
*M2/4
8b-\L
8b-\J
8b-\L
8b-\J
=2
8a/L
8b-/J
4cc\
=3
8cc\L
8cc\J
8cc\L
8cc\J
=4
8b-\L
8cc\J
4dd\
=5
8dd\L
8dd\J
8dd\L
8dd\J
=6
8cc\L
8dd\J
4ee-\
=7
8dd\L
8cc\J
8b-/L
8a/J
=8
4a/
4b-\
==
*-
